X: 4
T: Vallafield   [C]
O: Trad Shetland
R: jig
Z: John Chambers <jc:trillian.mit.edu>
M: 6/8
L: 1/8
K: C
G | "C"c2e c2e | "Am"ecA A2A | "G"Bcd dBG |1 "G"Bcd dB :|2 "C"c3- c2 |[| d | "C"cBA "G"GAB |
| "G"dBA B2G | "C"cBA "G"GAB | "C"cBA "G"GAB || "G"dBA B2G | "G"dBA B2G | "C"cBA "G"GAB | "C"c3-c2 |]

%%sep 1 1 500
